packages/product-components/src/images/networks/nmc.svg

<svg width="32" height="32" viewBox="0 0 32 32" fill="none" xmlns="http://www.w3.org/2000/svg">
<path d="M0 8C0 3.58172 3.58172 0 8 0H24C28.4183 0 32 3.58172 32 8V24C32 28.4183 28.4183 32 24 32H8C3.58172 32 0 28.4183 0 24V8Z" fill="#1F1F1F"/>
<path d="M19.6237 24.3334V24.3304C19.7956 24.3349 19.9674 24.3156 20.1333 24.2756C21.1067 24.0475 21.9304 23.1986 22.1259 22.28L26 7.72893L22.92 7.71412L20.3807 17.2326L13.5126 7.68153L13.5096 7.68597L13.5126 7.67412L12.3778 7.66671C12.2059 7.66523 12.0356 7.68301 11.8681 7.72153C10.8963 7.95116 10.0726 8.80153 9.87556 9.71856L6 24.2726L9.08148 24.286L11.6193 14.766L18.4874 24.3186H18.4904L19.6237 24.3334ZM12.2963 12.2297L12.8326 10.2178L19.7007 19.7734L19.1644 21.7837L12.2978 12.2282L12.2963 12.2297Z" fill="white"/>
</svg>

<svg xmlns="http://www.w3.org/2000/svg" width="32" height="32" viewBox="0 0 32 32" fill="none">
    <path class="bg" fill="#1F1F1F" d="M0 8a8 8 0 0 1 8-8h16a8 8 0 0 1 8 8v16a8 8 0 0 1-8 8H8a8 8 0 0 1-8-8z"/>
    <path class="fg" fill="#fff" d="M19.624 24.333v-.003a2 2 0 0 0 .51-.054c.973-.229 1.796-1.077 1.992-1.996L26 7.729l-3.08-.015-2.54 9.519-6.867-9.551-.003.004.003-.012-1.135-.007a2.2 2.2 0 0 0-.51.055c-.972.23-1.795 1.08-1.992 1.997L6 24.273l3.081.013 2.538-9.52 6.868 9.553h.003zM12.296 12.23l.537-2.012 6.868 9.555-.537 2.01-6.866-9.555z"/>
</svg>
